X: 2936
T: Barrel Rafferty's
R: jig
M: 6/8
K: Adorian
|:E2A AGE|A2B c3|EDE G2E|A2E GED|
E2A AGE|A2B c2d|efg dBG|A3 A3:|
|:e2a aga|bag a2g|ede g2e|a2e ged|
e2a aga|bag a2g|efg dBG|A3 A3:|

